X:1
T:Kitty come over
C:anon.
L:1/8
M:4/4
I:linebreak $
K:C
V:1 treble 
V:1
 .abcc | BcA BGE z2 | GAG GBd z2 | e^fg ded z2 | BAA A2 c z2 | BcA BGE z2 | GAG GBd z2 |$ %7
 e^fg dec z2 | BGG G2 :: ^f | g^fg efg z2 | ^fag fed z2 | g^fg efd z2 | eAA A2 c z2 |$ BcA BGE z2 | %15
 GAG GBd z2 | e^fg dec z2 | BGG G2 :| %18
